X:314
T:Boine amourete
C:Adam de la Halle
F:https://gallica.bnf.fr/ark:/12148/btv1b6001348v/f75.item
F:https://archive.org/details/oeuvrescompltes00cousgoog/page/n314
Z:Ali Corbin <ali.corbin:gmail.com>
N:(condensed)
M:3/4
L:1/4
Q:1/4=150
K:Cmix
%
%%MIDI program 1       42 Cello
%%MIDI program 2       72 piccolo
%%MIDI program 3       70 bassoon
V:1 clef=treble
V:2 clef=treble
V:3 clef=treble
%
[V:1] c c (B/2c/2) | d2 c || c =B/2A/2 B | c3 ||
[V:2] G A B | A2 G || G F/2E/2 F | G3 || 
[V:3] C C (B,/2C/2)| D2 E || C D2 | C3||
w:1.4.7.~Boine a-        mou-*    re- te  2.8.~Me     tient      gai.
w:3.~~~~~~~Ma  com-       paig-*   ne- te;      ~       ~          ~
w:5.~~~~~~~Ma  con-       çon-*    ne- te 6.~~~~Vous    di-       rai
W:
W:Boine amourete  % A simple infatuation 
W:Me tient gai.   % keeps me gay. 
W:
W:Ma compaignete; % My sweet companion; 
W:
W:
W:Boine amourete 
W:
W:Ma conçonnete   % My little song 
W:Vous dirai      % I'll tell to you 
W:
W:Boine amourete 
W:Me tient gai.


